X: 54
T: Miss McLeod's Reel
C: R-23
C: Irish
M: C|
Z: Transcribed to abc by Mary Lou Knack
R: reel
K: G
BA|"G"G2g2 edeg| B2BA BcBA| G2gf edeg| "D"A2AG AcBA|
   "G"G2g2 edeg| BcBA Bcd2| "C"efed "G"Bdef| gedB "D"Ac :|
\
BA| "G"GABc dBGA| B2BA BcBA| GABc dBGB| "D"ABAG AcBA|
    "G"GABc dBGA| BcBA Bcd2| "C"efed "G"Bdef| gedB "D"AcBA |
    "G"G2BG DGBG| B2BA BcBA| G2BG dGBG| "D"ABAG AcBA|
    "G"G2BG DGBG| BcBA Bcd2| "C"efed "G"Bdef| gedB "D"Ac |] "G - go out on" HG2 |]
%%begintext ragged
%% 9/1/98.
%% Also known as "May Day", "Mrs. McCloud's Reel",
%% "Hop High Ladies", "Hop Light Ladies", and "Hop Up Ladies".
%%endtext
% ---------- page 28 ----------
